X:1
T:The Hole in the Coat
L:1/8
Q:1/8=325
M:6/8
I:linebreak $
K:D
V:1 treble 
V:1
 A | FDD EDD | FAA BAA | def edB | AdB AFE | FDD EDD | FAA BAA | def edB |$ Adc d2 :| e | faa fee | %11
 fdd Bdd | faa fdd | faf e2 e | faa fee | fdd Bdd |$ afa ede | fdc d2 :| %18
